svgs/solid/calendar-star.svg

<svg xmlns="http://www.w3.org/2000/svg" viewBox="0 0 448 512"><!-- Font Awesome Pro 6.0.0-alpha2 by @fontawesome - https://fontawesome.com License - https://fontawesome.com/license (Commercial License) --><path d="M0 464C0 490.5 21.5 512 48 512H400C426.5 512 448 490.5 448 464V192H0V464ZM134.125 304.25L188.75 296.25L213.25 246.75C217.75 237.75 230.375 237.875 234.75 246.75L259.25 296.25L313.999 304.25C323.75 305.75 327.75 317.75 320.625 324.75L281 363.375L290.375 418C292.125 427.875 281.75 435.25 273 430.625L224 404.75L175.125 430.625C166.375 435.25 156 427.75 157.75 418L167.125 363.375L127.5 324.75C120.25 317.75 124.25 305.75 134.125 304.25ZM400 64H352V32C352 14.4 337.6 0 320 0H320C302.4 0 288 14.4 288 32V64H160V32C160 14.4 145.6 0 128 0H128C110.4 0 96 14.4 96 32V64H48C21.49 64 0 85.49 0 112V160H448V112C448 85.49 426.51 64 400 64Z"/></svg>

<svg xmlns="http://www.w3.org/2000/svg" viewBox="0 0 448 512"><!--! Font Awesome Pro 6.0.0-alpha3 by @fontawesome - https://fontawesome.com License - https://fontawesome.com/license (Commercial License) --><path d="M.0002 464c0 26.5 21.5 48 48 48h352c26.5 0 48-21.5 48-48L448 192H0L.0002 464zM134.1 304.3l54.63-8l24.5-49.5c4.5-9 17.12-8.875 21.5 0l24.5 49.5l54.75 8c9.751 1.5 13.75 13.5 6.626 20.5L281 363.4l9.375 54.63c1.75 9.875-8.625 17.25-17.38 12.62L224 404.8l-48.88 25.88C166.4 435.3 156 427.7 157.8 418l9.375-54.63L127.5 324.8C120.3 317.8 124.3 305.8 134.1 304.3zM400 64H352V31.1C352 14.4 337.6 0 320 0C302.4 0 288 14.4 288 31.1V64H160V31.1C160 14.4 145.6 0 128 0S96 14.4 96 31.1V64H48c-26.51 0-48 21.49-48 48L0 160h448l.0002-48C448 85.49 426.5 64 400 64z"/></svg>
